public/assets/images/floppy-disk.svg

<svg width="116" height="116" viewBox="0 0 116 116" fill="none" xmlns="http://www.w3.org/2000/svg">
<path d="M50.3465 89.2425C49.2382 84.1916 44.4928 66.8934 45.6365 66.5097C47.995 65.6857 80.4958 60.1161 80.4958 60.1161C80.4958 60.1161 85.6462 76.0433 85.0708 82.4227L50.3465 89.2425Z" fill="#F3D4EB"/>
<path d="M34.5332 31.8422C35.336 37.5681 38.6535 54.2482 40.0743 54.8734C42.7667 56.0598 64.1356 50.3482 68.7887 48.9274C69.0871 48.835 66.5225 33.1565 64.1782 26.1945L34.5332 31.8422Z" fill="#F3D4EB"/>
<path d="M25.0842 33.9592C26.9786 45.4535 28.873 56.9478 30.7674 68.442C31.6199 73.5759 32.4771 78.7073 33.339 83.8364C33.7937 86.4933 34.1134 89.2283 34.7598 91.8568C35.0369 93.0432 36.891 92.4962 37.7577 92.3896C40.7343 92.0273 43.6967 91.5514 46.659 91.0683C55.5627 89.6096 64.4332 87.9946 73.2706 86.2234C77.3696 85.4064 81.4686 84.561 85.5392 83.6162C88.186 83.0698 90.7959 82.358 93.3536 81.485C93.9554 81.3471 94.5081 81.0474 94.952 80.6183C95.2859 80.1636 95.1012 79.4319 95.0373 78.9133C94.6608 75.7307 94.0569 72.5624 93.4886 69.4082C91.9328 60.7058 90.2421 51.9892 88.3808 43.3152C88.1038 42.0223 87.8267 40.7364 87.5141 39.4506C87.4493 38.8692 87.2419 38.3128 86.9103 37.8309C86.0004 37.0185 85.0074 36.3042 83.9479 35.6997C82.0938 34.4423 80.2183 33.2275 78.3287 32.0269C74.8761 29.8247 71.3667 27.4449 67.63 25.747C66.2732 25.1361 65.03 25.4131 63.5737 25.5836C61.1157 25.8749 58.6719 26.294 56.2352 26.6918C46.5312 28.3968 36.891 30.528 27.2864 32.8581L25.4394 33.3057C24.7716 33.469 25.0558 34.4991 25.7235 34.3357C33.0312 32.5313 40.372 30.8737 47.7459 29.3629C52.8679 28.3186 58.0183 27.3028 63.2184 26.6634C64.1987 26.5012 65.188 26.3992 66.1808 26.3579C66.2959 26.3484 66.4113 26.3705 66.5147 26.4219C66.7278 26.5 66.9338 26.5853 67.1399 26.6776C68.7114 27.4354 70.2409 28.2773 71.7219 29.1995C75.6007 31.487 79.4156 33.9095 83.1452 36.4314C84.161 37.1418 85.1343 37.8522 86.1217 38.5626C86.2283 38.6408 86.1217 38.5626 86.1217 38.5129C86.1644 38.6123 86.1928 38.726 86.2283 38.8255C86.3278 39.1878 86.4201 39.5359 86.5054 39.9266C88.324 47.4923 89.7093 55.186 91.1443 62.8299C91.9115 66.8934 92.6645 70.9569 93.3394 75.0346C93.5454 76.2849 93.7585 77.5423 93.9077 78.8068C93.9504 79.162 93.9859 79.5172 94.0143 79.8724C94.0037 79.9597 94.0037 80.0479 94.0143 80.1352C93.9717 80.0358 94.1137 79.9647 94.0711 79.9576C94.0285 79.9505 94.0711 79.9576 93.9361 80.05C93.8143 80.1209 93.6886 80.185 93.5596 80.2418C93.3607 80.3341 92.9061 80.4975 92.5864 80.6041C91.4782 80.9806 90.3486 81.3145 89.212 81.5844C85.7665 82.4866 82.2856 83.2397 78.8046 83.9714C69.9744 85.8326 61.1015 87.4879 52.2072 89.0223C48.6126 89.6475 45.0038 90.2442 41.395 90.7841C39.4929 91.1519 37.568 91.3893 35.6336 91.4945C35.0369 91.4945 36.0954 91.5727 35.8041 91.8071C35.7783 91.6009 35.738 91.3967 35.6833 91.1962C35.4844 90.1306 35.2997 89.065 35.115 87.9922C34.3999 83.7962 33.6895 79.5953 32.9838 75.3898C31.08 63.8955 29.1808 52.3965 27.2864 40.8927L26.1072 33.6751C25.9935 33.0002 24.9705 33.2914 25.0842 33.9592Z" fill="#001A36"/>
<path d="M49.7714 90.3508C48.6419 85.2288 47.2495 80.1565 46.0702 75.0417C45.5232 72.6902 44.9549 70.3104 44.6494 67.9377C44.4938 67.3824 44.4719 66.7981 44.5855 66.2327C44.5855 66.2327 44.4789 66.2753 44.685 66.2327C44.8856 66.1713 45.0896 66.1215 45.2959 66.0835C48.9687 65.2097 52.7196 64.5988 56.435 63.9523C61.5546 63.0051 66.6813 62.1005 71.8151 61.2386C74.8793 60.7082 77.9411 60.1801 81.0006 59.6544L80.6028 59.4342C82.5747 65.3516 84.0853 71.4128 85.1209 77.5636C85.4768 79.4788 85.6103 81.4288 85.5187 83.3747L85.7532 83.0692L73.4633 85.3922L53.8846 89.2426L49.3807 90.1306C48.9758 90.2087 49.1463 90.841 49.5512 90.7486L61.8198 88.3333L81.3913 84.5184L85.9095 83.6233C86.0485 83.5874 86.1452 83.4614 86.1439 83.3178C86.4281 79.6522 85.5401 75.8302 84.7231 72.2711C83.9061 68.712 82.9329 65.025 81.8815 61.4446C81.6542 60.7342 81.4339 59.9457 81.1711 59.2069C81.1227 59.0387 80.9505 58.9385 80.7804 58.9795C72.9328 60.3151 65.0924 61.6861 57.259 63.0927C53.2595 63.8031 49.2315 64.5135 45.2675 65.3873C44.3298 65.6076 43.8467 65.707 43.8467 66.8081C43.9869 68.8465 44.3247 70.8664 44.8554 72.8394C46.1484 78.7784 47.7965 84.6392 49.1178 90.5994C49.2457 90.912 49.8638 90.7557 49.7714 90.3508Z" fill="#001A36"/>
<path d="M52.8613 75.1837C53.013 76.2968 53.2505 77.3964 53.5717 78.4729L74.9903 74.3526L74.2799 70.8006L52.8613 75.1837Z" fill="white"/>
<path d="M52.3496 33.4762C53.1595 36.7937 54.6442 46.6683 54.6442 46.6683C55.3546 46.9738 61.5422 45.7448 63.1051 45.1622C62.4859 40.7436 61.589 36.3683 60.4198 32.0625C59.411 32.2472 52.3496 33.4762 52.3496 33.4762Z" fill="white"/>
<path d="M33.7942 32.0127C34.6653 38.1048 35.8772 44.1432 37.4244 50.0995C37.737 51.3072 38.0637 52.5149 38.4758 53.6941C38.6416 54.3687 38.9438 55.0021 39.3638 55.5554C39.7787 55.8429 40.2822 55.9738 40.7846 55.9248C41.7048 55.9236 42.6237 55.8547 43.5338 55.7188C49.5083 54.9302 55.4188 53.3816 61.2441 51.8755C63.6595 51.2504 66.0677 50.6039 68.4618 49.9148C68.9733 49.7656 69.641 49.7514 69.705 49.1405C69.707 48.4544 69.6307 47.7704 69.4776 47.1016C69.0017 43.6988 68.3694 40.3173 67.6874 36.9571C67.0039 33.2508 66.0928 29.59 64.9595 25.9956C64.908 25.8265 64.7336 25.7268 64.5617 25.7683L54.2822 27.7432L37.8293 30.8903L34.0216 31.6007C33.6166 31.6717 33.7871 32.3111 34.1921 32.2116L44.5071 30.2438L60.967 27.0897L64.7677 26.3793L64.377 26.159C66.359 32.1548 67.4885 38.52 68.4902 44.736C68.6678 45.8371 68.8454 46.9382 68.9804 48.0465C68.9804 48.3377 68.9804 48.6574 69.0727 48.9345C69.0727 49.0197 69.0727 49.1334 69.0727 49.2044C69.0159 49.0623 69.3498 49.0481 68.959 49.0978C68.0742 49.2726 67.203 49.5099 66.3519 49.8082C65.1679 50.1398 63.9839 50.4618 62.7999 50.7744C57.0741 52.2875 51.2985 53.751 45.459 54.7455C44.365 54.9302 43.271 55.1007 42.1628 55.1931C41.4724 55.321 40.7645 55.321 40.0742 55.1931C39.6124 55.0439 39.449 54.4827 39.2714 54.0422C38.9018 53.0507 38.584 52.0405 38.3195 51.0159C36.6034 44.7124 35.2912 38.3058 34.391 31.8351C34.391 31.4373 33.7374 31.6078 33.7942 32.0127Z" fill="#001A36"/>
<path d="M51.2136 33.0997C52.3431 37.767 52.9611 42.5906 53.6573 47.3077C53.6854 47.417 53.7692 47.5034 53.8776 47.535C54.3982 47.638 54.934 47.638 55.4546 47.535C56.4137 47.4213 57.3727 47.2579 58.2962 47.0803C60.1192 46.8036 61.9174 46.3832 63.674 45.8229C63.8403 45.7685 63.9364 45.5949 63.8942 45.4251C63.2462 40.6629 62.2899 35.9478 61.0313 31.3095C60.9829 31.1413 60.8107 31.0411 60.6406 31.0821C57.5787 31.6575 54.5027 32.169 51.4054 32.7089C51.0004 32.78 51.1709 33.4193 51.5759 33.327C54.6377 32.7871 57.7137 32.2685 60.8111 31.7002L60.4132 31.4799C61.6817 36.12 62.6475 40.8375 63.3046 45.6027L63.5319 45.212C61.922 45.7252 60.2765 46.1193 58.6088 46.3912C57.6782 46.5688 56.7476 46.7322 55.8098 46.853C55.4689 46.9027 55.0994 46.9454 54.7798 46.9667C54.5575 46.9492 54.3342 46.9492 54.112 46.9667C54.3251 46.7251 54.2114 47.4213 54.247 47.0093C54.2384 46.8225 54.2122 46.637 54.1688 46.4552C54.0694 45.83 53.977 45.2049 53.8776 44.5726C53.5839 42.6403 53.2737 40.7104 52.9469 38.7829C52.6201 36.8293 52.3005 34.8686 51.8316 32.9363C51.7393 32.5313 51.1212 32.7018 51.2136 33.0997Z" fill="#001A36"/>
<path d="M52.378 74.6154C52.5746 76.138 52.8857 77.6436 53.3086 79.1194C53.3569 79.2871 53.5308 79.3852 53.6994 79.3396L72.4539 75.8302L75.1463 75.3258C75.3145 75.2775 75.4147 75.1052 75.3737 74.9351L74.372 70.1044C74.3237 69.9366 74.1498 69.8386 73.9813 69.8842L55.2978 73.7487L52.6124 74.3028C52.2146 74.3881 52.3851 75.0132 52.7829 74.9209L71.4665 71.0563L74.1518 70.5022L73.7611 70.2749L74.7556 75.1056L74.9829 74.7078L56.2213 78.2243L53.5289 78.7286L53.9267 78.9489C53.515 77.5293 53.211 76.0807 53.0174 74.6154C52.9748 74.2105 52.3354 74.2034 52.378 74.6154Z" fill="#001A36"/>
<path d="M85.5135 3.18521C80.9402 9.01737 78.4628 16.2191 78.4806 23.6305C78.4806 23.9248 78.7191 24.1633 79.0134 24.1633C79.3076 24.1633 79.5462 23.9248 79.5462 23.6305C79.5083 16.5045 81.8594 9.57136 86.2239 3.93824C86.6431 3.40544 85.8971 2.64531 85.4709 3.18521H85.5135Z" fill="#001A36"/>
<path d="M20.7616 40.102C15.697 36.5967 9.3672 35.4446 3.39233 36.9408C3.10788 37.0192 2.9409 37.3134 3.01937 37.5979C3.09784 37.8823 3.39204 38.0493 3.67649 37.9708C9.3739 36.5514 15.4068 37.6652 20.2217 41.0256C20.79 41.4163 21.3228 40.4928 20.7616 40.102Z" fill="#001A36"/>
<path d="M102.912 20.8332C98.4178 23.3857 94.3444 26.6157 90.8348 30.4094C90.3731 30.9138 91.1261 31.6739 91.5879 31.1695C95.0304 27.4387 99.03 24.2634 103.444 21.7567C103.699 21.6076 103.785 21.28 103.636 21.025C103.487 20.77 103.16 20.6841 102.905 20.8332H102.912Z" fill="#001A36"/>
<path d="M12.7634 80.6726C15.605 77.7173 19.8176 76.9004 23.6822 76.19C24.3571 76.0621 24.0729 75.0391 23.3981 75.1599C19.3417 75.9129 14.9798 76.8222 12.0317 79.9196C11.5557 80.4168 12.3087 81.1699 12.7847 80.6726H12.7634Z" fill="#001A36"/>
<path d="M101.352 60.8669C105.316 60.0783 109.209 61.7975 112.718 63.3959C113.336 63.6801 113.876 62.7565 113.258 62.4795C109.457 60.7461 105.323 58.9701 101.06 59.8368C100.393 59.9718 100.677 60.9947 101.345 60.8669H101.352Z" fill="#001A36"/>
<path d="M12.2607 20.684C16.2815 21.4797 19.2439 24.5841 21.9221 27.4754C22.391 27.9798 23.144 27.2197 22.6822 26.7224C19.8762 23.7103 16.7504 20.4922 12.5448 19.661C11.877 19.5332 11.5929 20.5561 12.2607 20.6911V20.684Z" fill="#001A36"/>
</svg>

<svg width="116" height="116" viewBox="0 0 116 116" xmlns="http://www.w3.org/2000/svg">
    <g fill-rule="nonzero" fill="none">
        <path d="M50.346 89.243c-1.108-5.051-5.853-22.35-4.71-22.733 2.359-.824 34.86-6.394 34.86-6.394s5.15 15.927 4.575 22.307l-34.725 6.82zM34.533 31.842c.803 5.726 4.12 22.406 5.541 23.031 2.692 1.187 24.061-4.525 28.714-5.946.299-.092-2.266-15.77-4.61-22.732l-29.645 5.647z" fill="#D2D8FF"/>
        <path d="m25.085 33.96 5.683 34.482c.852 5.134 1.71 10.265 2.571 15.394.455 2.657.775 5.392 1.421 8.02.277 1.187 2.131.64 2.998.534 2.977-.363 5.939-.839 8.901-1.322a763.634 763.634 0 0 0 26.612-4.845c4.099-.817 8.198-1.662 12.269-2.607a64.646 64.646 0 0 0 7.814-2.131 3.389 3.389 0 0 0 1.598-.867c.334-.454.15-1.186.086-1.705-.377-3.182-.98-6.35-1.549-9.505a772.051 772.051 0 0 0-5.108-26.093 144.392 144.392 0 0 0-.866-3.864 3.552 3.552 0 0 0-.604-1.62 17.376 17.376 0 0 0-2.963-2.131 224.2 224.2 0 0 0-5.619-3.673c-3.453-2.202-6.962-4.582-10.699-6.28-1.356-.61-2.6-.334-4.056-.163-2.458.29-4.902.71-7.338 1.108-9.704 1.705-19.345 3.836-28.95 6.166l-1.846.448c-.668.163-.384 1.193.284 1.03a564.478 564.478 0 0 1 22.022-4.973c5.122-1.044 10.273-2.06 15.473-2.7.98-.162 1.97-.264 2.962-.305.115-.01.23.012.334.064.213.078.42.163.625.256a48.62 48.62 0 0 1 4.582 2.522 219.325 219.325 0 0 1 11.424 7.231c1.015.71 1.989 1.421 2.976 2.132.107.078 0 0 0-.05.043.1.071.213.107.312.1.363.191.71.277 1.102 1.818 7.565 3.204 15.259 4.639 22.903.767 4.063 1.52 8.127 2.195 12.205.206 1.25.419 2.507.568 3.772.043.355.078.71.107 1.065-.01.088-.01.176 0 .263-.043-.1.1-.17.057-.177-.043-.007 0 0-.135.092a3.75 3.75 0 0 1-.377.192 12.39 12.39 0 0 1-.973.362 37.35 37.35 0 0 1-3.375.98c-3.445.903-6.926 1.656-10.407 2.387-8.83 1.862-17.703 3.517-26.597 5.051a462.89 462.89 0 0 1-10.813 1.762 42.503 42.503 0 0 1-5.761.71c-.597 0 .462.079.17.313a4.404 4.404 0 0 0-.12-.61 231.732 231.732 0 0 1-.569-3.205c-.715-4.196-1.425-8.397-2.13-12.602a37423.744 37423.744 0 0 1-5.698-34.497l-1.18-7.218c-.113-.675-1.136-.384-1.022.284z" fill="#231F20"/>
        <path d="M49.771 90.35c-1.13-5.121-2.522-10.193-3.701-15.308-.547-2.352-1.116-4.732-1.421-7.104a3.651 3.651 0 0 1-.064-1.705s-.107.042.1 0c.2-.062.404-.111.61-.15 3.673-.873 7.424-1.484 11.14-2.13a940.822 940.822 0 0 1 15.38-2.714c3.064-.53 6.126-1.059 9.185-1.585l-.398-.22a120.768 120.768 0 0 1 4.518 18.13c.356 1.915.49 3.865.398 5.81l.235-.305-12.29 2.323-19.579 3.85-4.504.889c-.405.078-.234.71.17.618l12.27-2.416 19.57-3.815 4.519-.895a.313.313 0 0 0 .234-.305c.285-3.666-.603-7.488-1.42-11.047s-1.79-7.246-2.842-10.826c-.227-.71-.448-1.5-.71-2.238a.327.327 0 0 0-.391-.227 2624.194 2624.194 0 0 0-23.521 4.113c-4 .71-8.028 1.42-11.992 2.294-.938.22-1.42.32-1.42 1.421.14 2.038.477 4.058 1.008 6.031 1.293 5.94 2.941 11.8 4.262 17.76.128.313.746.157.654-.248z" fill="#231F20"/>
        <path d="M52.861 75.184c.152 1.113.39 2.212.71 3.289l21.42-4.12-.711-3.552-21.419 4.383zM52.35 33.476c.81 3.318 2.294 13.192 2.294 13.192.71.306 6.898-.923 8.461-1.506a106.247 106.247 0 0 0-2.685-13.1c-1.009.185-8.07 1.414-8.07 1.414z" fill="#FFF"/>
        <path d="M33.794 32.013a164.614 164.614 0 0 0 3.63 18.087c.313 1.207.64 2.415 1.052 3.594.165.675.468 1.308.888 1.861.415.288.918.419 1.42.37.92-.001 1.84-.07 2.75-.206 5.974-.789 11.885-2.337 17.71-3.843a277.13 277.13 0 0 0 7.218-1.961c.511-.15 1.179-.164 1.243-.775a9.017 9.017 0 0 0-.228-2.038c-.476-3.403-1.108-6.785-1.79-10.145a91.855 91.855 0 0 0-2.728-10.961.334.334 0 0 0-.398-.228l-10.279 1.975-16.453 3.147-3.808.71c-.405.072-.234.711.17.612l10.316-1.968 16.46-3.154 3.8-.71-.39-.221c1.982 5.996 3.111 12.361 4.113 18.577.178 1.101.355 2.202.49 3.31 0 .292 0 .611.093.888v.27c-.057-.142.277-.156-.114-.106-.885.175-1.756.412-2.607.71a247.09 247.09 0 0 1-3.552.966c-5.726 1.514-11.502 2.977-17.341 3.972-1.094.184-2.188.355-3.296.447a5.733 5.733 0 0 1-2.089 0c-.462-.15-.625-.71-.803-1.15a30.469 30.469 0 0 1-.952-3.027 153.596 153.596 0 0 1-3.928-19.18c0-.399-.654-.228-.597.177z" fill="#231F20"/>
        <path d="M51.213 33.1c1.13 4.667 1.748 9.49 2.444 14.208a.32.32 0 0 0 .22.227c.52.103 1.057.103 1.577 0a40.166 40.166 0 0 0 2.842-.455 34.966 34.966 0 0 0 5.377-1.257.334.334 0 0 0 .22-.398 111.1 111.1 0 0 0-2.862-14.116.327.327 0 0 0-.39-.227c-3.063.576-6.139 1.087-9.236 1.627-.405.071-.235.71.17.618 3.062-.54 6.138-1.059 9.236-1.627l-.398-.22a111.1 111.1 0 0 1 2.891 14.123l.227-.391c-1.61.513-3.255.907-4.923 1.18-.93.177-1.86.34-2.799.461-.34.05-.71.092-1.03.114a4.262 4.262 0 0 0-.667 0c.213-.242.099.454.134.042a2.977 2.977 0 0 0-.078-.554c-.1-.625-.191-1.25-.29-1.882a342.338 342.338 0 0 0-.932-5.79c-.326-1.954-.646-3.914-1.115-5.847-.092-.405-.71-.234-.618.164zM52.378 74.615c.197 1.523.508 3.029.93 4.504a.32.32 0 0 0 .391.22l18.755-3.509 2.692-.504a.327.327 0 0 0 .228-.39l-1.002-4.832a.32.32 0 0 0-.39-.22L55.297 73.75l-2.685.554c-.398.085-.228.71.17.618l18.684-3.865 2.685-.554-.39-.227.994 4.83.227-.397-18.762 3.516-2.692.505.398.22a29.368 29.368 0 0 1-.91-4.334c-.042-.405-.681-.412-.639 0zM85.513 3.185a33.005 33.005 0 0 0-7.033 20.446.533.533 0 1 0 1.066 0 31.876 31.876 0 0 1 6.677-19.693c.42-.533-.326-1.293-.753-.753h.043zM20.762 40.102a21.39 21.39 0 0 0-17.37-3.161.534.534 0 1 0 .284 1.03 20.325 20.325 0 0 1 16.546 3.055c.568.39 1.1-.533.54-.924zM102.911 20.833a50.282 50.282 0 0 0-12.077 9.576c-.461.505.292 1.265.753.76a49.167 49.167 0 0 1 11.857-9.412.535.535 0 0 0-.54-.924h.007zM12.763 80.673c2.842-2.956 7.055-3.773 10.92-4.483.674-.128.39-1.15-.285-1.03-4.056.753-8.418 1.662-11.366 4.76-.476.497.277 1.25.753.753h-.022zM101.352 60.867c3.964-.789 7.857.93 11.366 2.529.618.284 1.158-.64.54-.917-3.8-1.733-7.935-3.509-12.197-2.642-.668.135-.384 1.158.284 1.03h.007zM12.26 20.684c4.022.796 6.984 3.9 9.662 6.791.47.505 1.222-.255.76-.753-2.806-3.012-5.931-6.23-10.137-7.061-.668-.128-.952.895-.284 1.03v-.007z" fill="#231F20"/>
    </g>
</svg>
